recipes/nomadlist/icon.svg

<svg width="1000pt" height="1000pt" viewBox="0 0 1000 1000" xmlns="http://www.w3.org/2000/svg"><path fill="#fffefe" d="M0 0h1000v1000H0V0z"/><path fill="#ff463c" d="M379.37 20.97c62.49-15.66 128.02-18.89 191.77-9.75 78.76 11.17 154.59 42.06 218.88 88.91 61.77 44.71 112.93 103.98 148.2 171.61 20.89 40.44 36.82 83.63 45.51 128.37l.5.77c5.05 27.79 8.99 55.86 9.44 84.14 1.15 14.31-.12 28.64-.41 42.97-2.85 48.15-12.45 95.96-28.97 141.32-14.32 38.59-33.01 75.64-56.45 109.51-45.02 66.04-106.44 120.68-177.03 158.1-32.43 16.79-66.44 30.92-101.88 39.9l-.77.45c-9.42 2.16-18.73 4.94-28.29 6.44l-.81.52c-20.91 3.57-41.91 7.18-63.12 8.35-10.26 1.12-20.6.76-30.89 1.49-57.2.2-114.59-8.77-168.6-27.83-66.25-23.3-127.48-60.86-178.06-109.59C87.21 788.84 37.16 699.21 16.87 603c-14.26-68.02-14.3-139 .28-206.98 1.02-5.41 2.57-10.69 3.7-16.07 14.43-58 39.72-113.26 73.91-162.27 28.55-40.96 63.42-77.49 102.82-108.15 53.65-41.6 115.92-72.1 181.79-88.56z"/><path fill="#fffefe" d="M422.41 206.17c9.7 7.85 19.93 15.03 29.89 22.56 42.91 31.99 85.79 64.02 128.73 95.97 53.11-39.44 106.06-79.09 159.14-118.57.15 116.96.03 233.92.07 350.89-.05 42.72.09 85.45-.07 128.17-1.48 1.89-3.88 2.76-5.8 4.13-50.7 31.98-101.33 64.06-152.06 95.99-.89.68-1.76.66-2.62-.05-51.93-32.73-103.81-65.55-155.71-98.33-.9-.75-2.21-.74-3.14-.06-52.37 33.03-104.62 66.26-157.11 99.1-.14-153.72-.02-307.44-.06-461.16 48.68-36.4 97.41-72.72 146.16-109.03 4.19-3.2 8.55-6.2 12.58-9.61z"/><path fill="#ff463c" d="M422.85 238.44c9.48 7.83 19.65 14.8 29.39 22.32 42.57 31.73 85.09 63.52 127.63 95.3 1.4.77.8 2.66 1.02 3.95-.1 130.94.11 261.89-.11 392.83-52.3-33.41-104.93-66.32-157.27-99.66-1.12-1.06-.51-2.83-.69-4.17.07-136.86 0-273.71.03-410.57z"/></svg>

<?xml version="1.0" encoding="UTF-8" ?>
<!DOCTYPE svg PUBLIC "-//W3C//DTD SVG 1.1//EN" "http://www.w3.org/Graphics/SVG/1.1/DTD/svg11.dtd">
<svg width="1000pt" height="1000pt" viewBox="0 0 1000 1000" version="1.1" xmlns="http://www.w3.org/2000/svg">
<path fill="#fffefe" d=" M 0.00 0.00 L 1000.00 0.00 L 1000.00 1000.00 L 0.00 1000.00 L 0.00 0.00 Z" />
<path fill="#ff463c" d=" M 379.37 20.97 C 441.86 5.31 507.39 2.08 571.14 11.22 C 649.90 22.39 725.73 53.28 790.02 100.13 C 851.79 144.84 902.95 204.11 938.22 271.74 C 959.11 312.18 975.04 355.37 983.73 400.11 L 984.23 400.88 C 989.28 428.67 993.22 456.74 993.67 485.02 C 994.82 499.33 993.55 513.66 993.26 527.99 C 990.41 576.14 980.81 623.95 964.29 669.31 C 949.97 707.90 931.28 744.95 907.84 778.82 C 862.82 844.86 801.40 899.50 730.81 936.92 C 698.38 953.71 664.37 967.84 628.93 976.82 L 628.16 977.27 C 618.74 979.43 609.43 982.21 599.87 983.71 L 599.06 984.23 C 578.15 987.80 557.15 991.41 535.94 992.58 C 525.68 993.70 515.34 993.34 505.05 994.07 C 447.85 994.27 390.46 985.30 336.45 966.24 C 270.20 942.94 208.97 905.38 158.39 856.65 C 87.21 788.84 37.16 699.21 16.87 603.00 C 2.61 534.98 2.57 464.00 17.15 396.02 C 18.17 390.61 19.72 385.33 20.85 379.95 C 35.28 321.95 60.57 266.69 94.76 217.68 C 123.31 176.72 158.18 140.19 197.58 109.53 C 251.23 67.93 313.50 37.43 379.37 20.97 Z" />
<path fill="#fffefe" d=" M 422.41 206.17 C 432.11 214.02 442.34 221.20 452.30 228.73 C 495.21 260.72 538.09 292.75 581.03 324.70 C 634.14 285.26 687.09 245.61 740.17 206.13 C 740.32 323.09 740.20 440.05 740.24 557.02 C 740.19 599.74 740.33 642.47 740.17 685.19 C 738.69 687.08 736.29 687.95 734.37 689.32 C 683.67 721.30 633.04 753.38 582.31 785.31 C 581.42 785.99 580.55 785.97 579.69 785.26 C 527.76 752.53 475.88 719.71 423.98 686.93 C 423.08 686.18 421.77 686.19 420.84 686.87 C 368.47 719.90 316.22 753.13 263.73 785.97 C 263.59 632.25 263.71 478.53 263.67 324.81 C 312.35 288.41 361.08 252.09 409.83 215.78 C 414.02 212.58 418.38 209.58 422.41 206.17 Z" />
<path fill="#ff463c" d=" M 422.85 238.44 C 432.33 246.27 442.50 253.24 452.24 260.76 C 494.81 292.49 537.33 324.28 579.87 356.06 C 581.27 356.83 580.67 358.72 580.89 360.01 C 580.79 490.95 581.00 621.90 580.78 752.84 C 528.48 719.43 475.85 686.52 423.51 653.18 C 422.39 652.12 423.00 650.35 422.82 649.01 C 422.89 512.15 422.82 375.30 422.85 238.44 Z" />
</svg>
